dist/upp/assets/img/soc-yt.svg

<svg width="24" height="24" viewBox="0 0 24 24" fill="none" xmlns="http://www.w3.org/2000/svg">
<path d="M23.4986 6.22395C23.2226 5.19129 22.4094 4.37815 21.3768 4.10215C19.505 3.60059 12 3.60059 12 3.60059C12 3.60059 4.49498 3.60059 2.62317 4.10215C1.5907 4.37815 0.777375 5.19129 0.501422 6.22395C0 8.09557 0 12.0007 0 12.0007C0 12.0007 0 15.9058 0.501422 17.7772C0.777375 18.8099 1.5907 19.6233 2.62317 19.8992C4.49498 20.4006 12 20.4006 12 20.4006C12 20.4006 19.505 20.4006 21.3768 19.8992C22.4094 19.6233 23.2226 18.8099 23.4986 17.7772C24 15.9058 24 12.0007 24 12.0007C24 12.0007 24 8.09557 23.4986 6.22395ZM9.59986 15.6008V8.40063L15.8351 12.0007L9.59986 15.6008Z" fill="white"/>
</svg>

<svg width="24" height="24" fill="none" xmlns="http://www.w3.org/2000/svg"><path d="M23.499 6.224a3.006 3.006 0 00-2.122-2.122C19.505 3.601 12 3.601 12 3.601s-7.505 0-9.377.501A3.006 3.006 0 00.501 6.224C0 8.096 0 12 0 12s0 3.905.501 5.776A3.006 3.006 0 002.623 19.9c1.872.502 9.377.502 9.377.502s7.505 0 9.377-.502a3.006 3.006 0 002.122-2.122C24 15.906 24 12.001 24 12.001s0-3.905-.501-5.777zm-13.9 9.377V8.4l6.236 3.6L9.6 15.6z" fill="#fff"/></svg>
